X:1
T:The Well-Tempered Clavier Part II Fuga VI
T:BWV 875
T:J. S. Bach
%%score { ( 1 3 ) | 2 }
L:1/8
Q:1/4=72
M:4/4
K:F
V:1 treble nm="Harp"
V:3 treble 
V:2 bass 
V:1
"^Adagio" (3D/E/F/(3G/F/E/ (3F/G/A/(3B/A/G/ Ad^c=c | =B_BAG- GFEA | %2
 (3A/=B/c/(3d/c/B/ (3c/d/e/(3f/e/d/ ea^g=g | ^f=fed- dc=Be | %4
 A=Bc^G (3A/=G/F/(3E/F/G/ (3F/E/D/(3^C/D/E/ | D^CDG- G/E/F/G/ A/=B/c/A/ | %6
 d/^c/d/e/ f/=B/e/d/ c/A/ d2 =c- | cB A2 G/g/a/g/ f/a/g/f/ | e/c/ f2 e- e/fe/- e/d^c/ | %9
 dB (3A/G/F/(3E/F/G/ (3F/E/D/(3^C/D/E/ (3D/E/F/(3G/F/E/ | (3F/G/A/(3B/A/G/ Ad ^c=c=B_B | %11
 Aa^g=g ^f=f e2- | e d2 ^c z/ a/b/a/ g/b/a/g/ | %13
 (3f/e/d/(3^c/d/e/ (3A/=B/=c/(3d/c/=B/ (3c/d/e/(3f/e/d/ ea | ^g=g^f=f ed-dc | %15
 =B _B2 A ^G =G2 G/4[F^^F]/4G/4F/4 | E z z2 z2 (3z/ D/E/(3F/E/D/ | %17
 (3z/ B/A/(3G/A/B/ (3z/ A/B/(3c/B/A/ B^F (3G/A/B/(3c/B/A/ | (3B/c/d/(3_e/d/^c/ d2- d z g z | %19
 eg c z z2 (3f/_e/d/(3c/d/e/ | d2 (3^c/d/e/(3f/e/d/ (3e/f/g/(3a/g/f/ gf | %21
 e2- e/d/_e/d/ ^c/=e/d/=c/ =B_B | A3 G- GF E2 | D2 z2 z4 | z4 (3D/E/F/(3G/F/E/ (3F/G/A/(3B/A/G/ | %25
 Ad ^c=c =B_B AG- | G/G/F/E/ F/4E/4F/4E/4F/4E/4D/ !fermata!D4 |] %27
V:2
 z8 | z8 | z8 | z8 | z8 | (3D,/E,/F,/(3G,/F,/E,/ (3F,/G,/A,/(3B,/A,/G,/ A,D^C=C | %6
 =B,_B,A,G,- G,F,E,A, | D,/D/_E/D/ C/E/D/C/ =B,/G,/ C2 _B,- | %8
 B,A,G,C (3F,/G,/A,/(3B,/A,/G,/ A,A,, | %9
 (3D,/E,/F,/(3G,/F,/E,/ (3F,/G,/A,/(3B,/A,/G,/ A,G, (3F,/E,/D,/(3^C,/D,/E,/ | %10
 D,2- D,/C,/B,, A,,>D, G,,>C, | F,,>B,, E,,>A,, D,, D,2 ^C, | D,/A,/B,/A,/ G,/B,/A,/G,/ F,2 E,2 | %13
 D, z z2 z2 z/ =B,,/C,/D,/ | E,/^F,/G,/E,/ A,/^G,/A,/=B,/ C/F,/B,/A,/ G,/E,/A,- | %15
 A,/D,/G,/F,/ E,/C,/F,- F,/=B,,/E,/D,/ ^C,/A,,/D,- | %16
 D,^C, (3D,/=C,/B,,/(3A,,/B,,/C,/ (3B,,/A,,/G,,/(3^F,,/G,,/A,,/ G,,D,, | %17
 _E,,=E,, F,,^F,, (3G,,/A,,/B,,/(3C,/B,,/A,,/ (3B,,/C,/D,/(3_E,/D,/C,/ | %18
 D, G,2 ^F, (3G,/=F,/E,/(3D,/E,/F,/ E,G, | (3C/B,/A,/(3G,/A,/B,/ A,C (3F,/_E,/D,/(3C,/D,/E,/ D,F, | %20
 (3B,/A,/G,/(3^F,/G,/A,/ (3G,/=F,/E,/(3D,/E,/F,/ (3E,/D,/C,/(3=B,,/^C,/D,/ C,/A,,/D,- | %21
 D,^C, D,G,- G,^F, G,/=F,/E,/D,/ | ^C,/E,/D,/=C,/ =B,,_B,, A,,/A,/B,/A,/ G,/B,/A,/G,/ | %23
 F,/A,/G,/F,/ E,/D,/^C,/E,/ D,/=C,/B,,/A,,/ G,,/B,,/A,,/G,,/ | %24
 F,,B,, (3A,,/G,,/F,,/(3E,,/F,,/G,,/ (3F,,/E,,/D,,/(3^C,,/D,,/E,,/ D,, z | %25
 z/ E,,/F,,/G,,/ A,,/=B,,/C,/A,,/ D,/^C,/D,/E,/ F,/B,,/E,/D,/ | %26
 ^C,/A,,/D,/G,/ A,A,, !fermata!D,,4 |] %27
V:3
 x8 | x8 | FDA z z/ =B,/C/D/ E/^F/G/E/ | A/^G/A/=B/ c/^F/B/A/ G/E/ A2 =G- | %4
 (3G/F/E/(3D/E/F/ (3E/D/C/(3=B,/C/D/ C^CD[I:staff +1]G, | F,[I:staff -1]=B,A,D ^CD E2 | %6
[I:staff +1] D2 x2[I:staff -1] z/ A/_B/B/ G/B/A/G/ | ^F/D/ G2[I:staff +1] =F FE D2 | %8
[I:staff -1] C/c/d/c/ B/d/c/B/ AGFE | F^C D2- D[I:staff +1]B, A,2 | %10
 (3A,/G,/F,/(3E,/F,/G,/ F,>G,[I:staff -1] z/[I:staff +1] G,/^F,[I:staff -1] z/[I:staff +1] =F,/E, | %11
[I:staff -1] z/[I:staff +1] _E,/D,[I:staff -1] z/[I:staff +1] D,/^C, F,/[I:staff -1]A/B/A/ G/B/A/G/ | %12
 F2[I:staff +1] E2- E D2 ^C | (3D/E/F/(3G/F/E/[I:staff -1] (3F/G/A/(3_B/A/G/ Ad ^c=c | %14
 =B_B A2- A z/ F/ E>E | D>D C>C =B,>B, A, z | (3A/G/F/(3E/F/G/ (3F/E/D/(3^C/D/E/ DA, B,=B, | %17
 C^C D2- D2- D z | z2 (3d/=c/B/(3A/B/c/ Bd G=B | c z (3c/B/A/(3G/A/B/ Ac FA | BA- A4- A/A/B/A/ | %21
 G/B/A/G/ F[I:staff +1]B, A,2 G,[I:staff -1]G- | GF/E/ D/G/E/D/ ^C D2 C | %23
 D/[I:staff +1]C/B,/A,/ G,/B,/A,/G,/ F,/A,/G,/F,/ E,/D,/^C,/E,/ | %24
 (3D,/E,/F,/(3G,/F,/E,/ (3F,/G,/A,/(3B,/A,/G,/ A,2- (3A,/G,/F,/(3E,/F,/G,/ | %25
 F,[I:staff -1]F EA A>G- G/FF/ | ED- D^C D4 |] %27

